packages/core/src/svgs/tokens/mono/CHAT.svg

<svg width="24" height="24" viewBox="0 0 24 24" fill="none" xmlns="http://www.w3.org/2000/svg">
<path d="M12.2799 19.2291C12.9833 19.1808 13.6808 19.0685 14.3638 18.8934C15.207 19.1474 16.0973 19.2049 16.9661 19.0615C17.0006 19.056 17.035 19.0535 17.07 19.0535C17.38 19.0535 17.7869 19.231 18.38 19.6059V18.9896C18.3798 18.8824 18.4087 18.777 18.4634 18.6847C18.5182 18.5924 18.597 18.5167 18.6912 18.4654C18.9487 18.3216 19.1886 18.1553 19.4081 17.9729C20.2719 17.2503 20.76 16.2872 20.76 15.2665C20.76 14.9295 20.7063 14.5944 20.6012 14.2741C20.8618 13.7935 21.0731 13.2884 21.2281 12.7648C21.7285 13.5036 21.9972 14.3749 22 15.2673C22 16.6534 21.3462 17.9466 20.215 18.8922C20.026 19.0499 19.8272 19.1953 19.62 19.3278V20.7697C19.62 21.2659 19.0399 21.5509 18.6313 21.2559C18.2442 20.9705 17.8438 20.7038 17.4312 20.4566C17.3126 20.3867 17.1894 20.3252 17.0624 20.2722C16.723 20.3223 16.3749 20.3485 16.0238 20.3485C14.6118 20.3485 13.3069 19.9303 12.2799 19.2291ZM4.81374 16.3454C3.02999 14.8535 2 12.8184 2 10.6391C2 6.18537 6.2581 2.62476 11.4569 2.62476C16.6568 2.62476 20.915 6.18475 20.915 10.6385C20.915 15.0928 16.6562 18.6522 11.4569 18.6522C10.8731 18.6522 10.295 18.6084 9.72875 18.519C9.48375 18.5759 8.50498 19.1503 7.09372 20.1672C6.5831 20.5359 5.85811 20.1796 5.85811 19.5591V17.0996C5.49309 16.8726 5.1437 16.6209 4.81374 16.3454ZM9.76316 17.0028C9.80618 17.0028 9.84993 17.006 9.8931 17.0129C10.4031 17.0979 10.9269 17.1409 11.4569 17.1409C15.8488 17.1409 19.3636 14.2022 19.3636 10.6391C19.3636 7.07662 15.8488 4.13787 11.4574 4.13787C7.06685 4.13787 3.54998 7.07662 3.54998 10.6391C3.54998 12.3615 4.37124 13.9841 5.82311 15.1978C6.1881 15.5022 6.58873 15.7784 7.01874 16.019C7.25997 16.1535 7.40872 16.404 7.40872 16.6741V18.0928C8.52497 17.3534 9.25873 17.0028 9.76316 17.0028Z" fill="white"/>
<path d="M7.62499 11.9998C8.31535 11.9998 8.87498 11.4401 8.87498 10.7498C8.87498 10.0595 8.31535 9.49976 7.62499 9.49976C6.93463 9.49976 6.375 10.0595 6.375 10.7498C6.375 11.4401 6.93463 11.9998 7.62499 11.9998Z" fill="white"/>
<path d="M11.6874 11.9998C12.3778 11.9998 12.9375 11.4401 12.9375 10.7498C12.9375 10.0595 12.3778 9.49976 11.6874 9.49976C10.9971 9.49976 10.4375 10.0595 10.4375 10.7498C10.4375 11.4401 10.9971 11.9998 11.6874 11.9998Z" fill="white"/>
<path d="M15.7499 12.001C16.4403 12.001 17 11.4413 17 10.7509C17 10.0605 16.4403 9.50098 15.7499 9.50098C15.0597 9.50098 14.5 10.0605 14.5 10.7509C14.5 11.4413 15.0597 12.001 15.7499 12.001Z" fill="white"/>
</svg>

<svg xmlns="http://www.w3.org/2000/svg" width="24" height="24" fill="none" viewBox="0 0 24 24">
    <path fill="#fff" d="M12.28 19.23q1.056-.075 2.084-.337a5.8 5.8 0 0 0 2.602.168 1 1 0 0 1 .104-.008c.31 0 .717.178 1.31.553v-.616a.6.6 0 0 1 .311-.525c.258-.143.498-.31.717-.492.864-.723 1.352-1.686 1.352-2.706a3.2 3.2 0 0 0-.159-.993c.26-.48.472-.986.627-1.51.5.74.77 1.61.772 2.503 0 1.386-.654 2.68-1.785 3.625a6 6 0 0 1-.595.436v1.442c0 .496-.58.78-.989.486a15 15 0 0 0-1.2-.8 3 3 0 0 0-.369-.184q-.51.076-1.038.077c-1.412 0-2.717-.419-3.744-1.12m-7.466-2.885C3.03 14.854 2 12.818 2 10.64c0-4.454 4.258-8.014 9.457-8.014s9.458 3.56 9.458 8.014-4.259 8.013-9.458 8.013q-.877 0-1.728-.133c-.245.057-1.224.631-2.635 1.648-.51.369-1.236.013-1.236-.608V17.1a9 9 0 0 1-1.044-.754m4.95.658q.063 0 .13.01a9.5 9.5 0 0 0 1.563.128c4.392 0 7.907-2.939 7.907-6.502s-3.515-6.501-7.907-6.501c-4.39 0-7.907 2.939-7.907 6.501 0 1.723.821 3.345 2.273 4.559q.55.458 1.196.821c.241.135.39.385.39.655v1.419c1.116-.74 1.85-1.09 2.354-1.09"/>
    <path fill="#fff" d="M7.625 12a1.25 1.25 0 1 0 0-2.5 1.25 1.25 0 0 0 0 2.5m4.062 0a1.25 1.25 0 1 0 0-2.5 1.25 1.25 0 0 0 0 2.5m4.063.001a1.25 1.25 0 1 0 0-2.5 1.25 1.25 0 0 0 0 2.5"/>
</svg>
